X: 42
T: TWO AND TWO
B: "Old English Country Dances", Frank Kidson ed., William Reeves pub., London 1890
Z: 2010-9-26 John Chambers <jc:trillian.mit.edu>
M: 6/8
L: 1/8
K: Gm
|: GBd  dcd | Gce ede | dBG cA^F | DGB  A3  |\
   GBd  dcd | Gce ede | dBG cA^F | GDB, G,2 :|
|: Bd^f f2e | Ace e2d | cBA  GAB | A^FD D3  |\
   Bd^f f2e | Ace e2d | cBA ^FGA | GDB, G,2 :|


%%sep 1 1 500

%%sep 1 1 500

